X:125
T:Corn Cob Clog
S:American Veteran Fifer #125
C:By Dr. Wm. M. Haffner, Bass Drummer Co.A.154th O.V.I.
M:2/4
L:1/16
Q:1/8=180
K:A 
%%MIDI program 72
%%MIDI transpose 8
%%MIDI ratio 3 1
"^8va only." A2ga fedf | ecAc ((3B/c/B/)ABc | A2ga fedf | ecAc B2b2 |
A2ga fedf | ecAc ((3B/c/B/)ABc | fedf ecAc | ((3B/c/B/)ABc A4 :|
|: A2ga A2ga | A2ga fece | A2ga A2ga | fece B2b2 |
A2ga A2ga | A2ga fece | fedf ecAc | ((3B/c/B/)ABc A4 :|


